Suru++-Ubuntu/apps/symbolic/mullvad-symbolic.svg

<svg width="16" height="16" version="1.1" xmlns="http://www.w3.org/2000/svg">
 <path d="m12.363636 1.4090907c1.638109 0 3.636364 1.6841454 3.636364 3.7727273 0 0.8986182-0.314432 2.0556727-0.838068 2.7045454-0.115346 0.2955637 0.0025 0.5398045 0.0057 0.6051136 0.01106 0.2226909-0.473895 0.3179448-1.775568-0.102272-2.357255-0.9275643-3.8954822-2.2547325-4.6647913-4.0710234l-1.4545457 0.01136v-1.4659055h1.4545457c0-1.0664727 1.9982543-1.4545454 3.6363633-1.4545454zm-10.909091 1.4545454c0.803324 0 1.454546 0.6512223 1.454546 1.4545455s-0.651222 1.4545455-1.454546 1.4545455c-0.803323 0-1.454545-0.6512223-1.454545-1.4545455s0.651222-1.4545455 1.454545-1.4545455zm4.363637 1.4545455v0.01136c5.7e-5 0.8077482 0.658185 1.4607746 1.465909 1.4545455l0.7613635-0.00568c1.0487154 1.7188615 2.6211965 3.1025209 4.8153415 3.9659092 0.02808 0.0113 0.0565 0.02172 0.08523 0.03125 0.610513 0.1970937 1.079222 0.2949537 1.54261 0.3295467 0.281395 1.513973 0.731051 3.377844 1.511364 4.394887 0 0-3.880727-0.01222-5.818182 0h-4.363636c0.368-1.588364 3.0456721-4.397818 0-4.363637l0.017045-0.7272723c-0.861603-0.8645246-1.941294-1.7141689-2.860795-2.6164772 0.861235-0.5277104 1.387105-1.4643823 1.389204-2.4744319 0.177435 3.884e-4 0.249329-0.00205 0.426137 0 0.750569 0.00876 0.636198 0.00126 1.028409 0zm4.363636 4.3636364c-2.0471272 0.045924-2.909091 1.454545-2.909091 1.454545h2.909091z" fill="#808080"/>
</svg>

<svg xmlns="http://www.w3.org/2000/svg" width="16" height="16" version="1.1">
 <path fill="#808080" d="M 12.363636,1.4090907 C 14.001745,1.4090907 16,3.0932361 16,5.181818 c 0,0.8986182 -0.314432,2.0556727 -0.838068,2.7045454 -0.115346,0.2955637 0.0025,0.5398045 0.0057,0.6051136 0.01106,0.2226909 -0.473895,0.3179448 -1.775568,-0.102272 C 11.034809,7.4616407 9.4965818,6.1344725 8.7272727,4.3181816 L 7.272727,4.3295416 V 2.8636361 h 1.4545457 c 0,-1.0664727 1.9982543,-1.4545454 3.6363633,-1.4545454 z M 1.454545,2.8636361 c 0.803324,0 1.454546,0.6512223 1.454546,1.4545455 0,0.8033232 -0.651222,1.4545455 -1.454546,1.4545455 C 0.651222,5.7727271 0,5.1215048 0,4.3181816 0,3.5148584 0.651222,2.8636361 1.454545,2.8636361 Z m 4.363637,1.4545455 v 0.01136 c 5.7e-5,0.8077482 0.658185,1.4607746 1.465909,1.4545455 l 0.7613635,-0.00568 c 1.0487154,1.7188615 2.6211965,3.1025209 4.8153415,3.9659092 0.02808,0.0113 0.0565,0.02172 0.08523,0.03125 C 13.556539,9.97266 14.025248,10.07052 14.488636,10.105113 14.770031,11.619086 15.219687,13.482957 16,14.5 c 0,0 -3.880727,-0.01222 -5.818182,0 H 5.818182 c 0.368,-1.588364 3.0456721,-4.397818 0,-4.363637 L 5.835227,9.4090907 C 4.973624,8.5445661 3.893933,7.6949218 2.974432,6.7926135 3.835667,6.2649031 4.361537,5.3282312 4.363636,4.3181816 c 0.177435,3.884e-4 0.249329,-0.00205 0.426137,0 0.750569,0.00876 0.636198,0.00126 1.028409,0 z M 10.181818,8.681818 C 8.1346908,8.727742 7.272727,10.136363 7.272727,10.136363 h 2.909091 z"/>
</svg>
